!!!!SEGMENT: pl-sa--228-a-vi-32--001_luna-georgius--litania-ex-d-sinfonia.krn
!!!cenid: 17xx:446
!!!COM: Luna, Georgius
!!!COM-rismID: pe41010079
!!!CDT:
!!!CNT:
!!!OPR: Litania ex D
!!!OTL: Sinfonia
!!!OMV: 001
!!!PDT:
!!!AGN: Sacred; Mass
!!!SMS-siglum: PL-SA
!!!SMS-shelfmark: 228/A VI 32
!!!SMS-shelfwork: 001-001 M
!!!SMS-variant: Violino Primo: PL-SA 228/A VI 32:11
!!!SMS-altvar: Violino Imo: PL-SA 228/A VI 32:29
!!!NIFC-rismSourceID: 1001068968
!!!NIFC-rismChildID: 1001068968
!!!NIFC-islandoraID:
!!!URL-pdf-islandora:
!!!URL-scan: https://bc.bdsandomierz.pl/dlibra/publication/1604/edition/1572/content @EN{Scan in the Sandomierz Diocese Digital Library} @PL{Skany w portalu Cyfrowa Biblioteka Diecezjalna w Sandomierzu}
!!!ONB-nifc: UWAGA: części Litanii: Sinfonia, Kyrie, Pater de caelis, Sancta trinitas, Sancta Maria,
!!!AIN: 3 empty 1 tenor 2 violn 1 vox
!!!key:
**kern	**dynam	**kern	**dynam	**kern	**dynam	**kern	**kern	**kern	**kern
*Iempty	*	*Ivioln	*	*Ivioln	*	*Itenor	*Ivox	*Iempty	*Iempty
*I"Fondamemto	*	*I"Violino Secundo	*	*I"Violino Primo	*	*I"Tenore	*I"Canto	*I"Clarino Socundo	*I"Clarino Primo
*I'bc	*	*I'vl 2	*	*I'vl 1	*	*I'T	*I'S	*I'clno 2 in D	*I'clno 1 in D
*clefF4	*	*clefG2	*	*clefG2	*	*clefC4	*clefC1	*clefG2	*clefG2
*	*	*	*	*	*	*	*	*Trd-1c-2	*Trd-1c-2
*k[f#c#]	*	*k[f#c#]	*	*k[f#c#]	*	*k[f#c#]	*k[f#c#]	*k[]	*k[]
*D:	*	*D:	*	*D:	*	*D:	*D:	*D:	*D:
*M4/4	*	*M4/4	*	*M4/4	*	*M4/4	*M4/4	*M4/4	*M4/4
*met(c)	*	*met(c)	*	*met(c)	*	*met(c)	*met(c)	*met(c)	*met(c)
=1	=1	=1	=1	=1	=1	=1	=1	=1	=1
!LO:TX:rj:a:t=Adagio	!	!LO:TX:a:t=adagio	!	!	!	!LO:TX:a:t=Sinfonia Tacet	!LO:TX:a:t=Sinfonia Tacet	!LO:TX:rj:a:t=adagio	!LO:TX:a:t=adagio
8.D\L	.	8.a\L	.	8.dd\L	.	1ryy	1ryy	4cc\	4ee\
16D\Jk	.	16a\Jk	.	16ff#\K	.	.	.	.	.
8.D\L	.	8.a\L	.	8.ff#\	.	.	.	4cc\	4ee\
16D\Jk	.	16ff#\Jk	.	16dd\Jk	.	.	.	.	.
4C#/	.	4ee\	.	4aa\	.	.	.	4g/	4dd\
4r	.	4r	.	4r	.	.	.	4r	4r
=2	=2	=2	=2	=2	=2	=2	=2	=2	=2
8.A\L	.	8.a\L	.	8.a\L	.	1ryy	1ryy	4g/	4dd\
16A\Jk	.	16ee\Jk	.	16gg\K	.	.	.	.	.
8.A\L	.	8.ee\L	.	8.gg\	.	.	.	4g/	4dd\
16A\Jk	.	16cc#\Jk	.	16ee\Jk	.	.	.	.	.
4D/	.	4dd\	.	4ff#\	.	.	.	4cc\	4ee\
4r	.	4r	.	4r	.	.	.	4r	4r
=3	=3	=3	=3	=3	=3	=3	=3	=3	=3
1r	.	(16aa\KL	.	(16aa\KL	.	1ryy	1ryy	1r	1r
.	.	8.bb-X\J)	.	8.bb-X\)	.	.	.	.	.
.	.	(16gg#X\KL	.	(16gg#X\K	.	.	.	.	.
.	.	8.aa\J)	.	8.aa\J)	.	.	.	.	.
.	.	(16ff#\KL	.	(16ff#\KL	.	.	.	.	.
.	.	8.ggn\J)	.	8.ggn\J)	.	.	.	.	.
.	.	(16ee\KL	.	(16ee\KL	.	.	.	.	.
.	.	8.ffn\J)	.	8.ffn\J)	.	.	.	.	.
=4	=4	=4	=4	=4	=4	=4	=4	=4	=4
!	!	!	!	!LO:SIC:s=:v:8.ffn t=?	!	!	!	!	!
8.G#X\L	.	8.dd\L	.	8.ff#\L	.	1ryy	1ryy	2r	2r
!	!	!	!	!LO:SIC:s=:v:16ffn	!	!	!	!	!
16G#\Jk	.	16dd\Jk	.	16ff#\K	.	.	.	.	.
!	!	!	!	!LO:SIC:s=:v:8.ffn	!	!	!	!	!
8.G#\L	.	8.dd\L	.	8.ff#\	.	.	.	.	.
!	!	!	!	!LO:SIC:s=:v:16ffn	!	!	!	!	!
16G#\Jk	.	16dd\Jk	.	16ff#\Jk	.	.	.	.	.
4A;\	.	4cc#;\	.	4ee;\	.	.	.	4g;/	4dd;\
4r	.	4r	.	4r	.	.	.	4r	4r
=5	=5	=5	=5	=5	=5	=5	=5	=||5	=||5
*tremolo	*	*	*	*	*	*	*	*	*
*2\right	*	*	*	*	*	*	*	*	*
!LO:TX:a:t=Allo&colon;	!	!LO:TX:a:t=Allo&colon;	!	!	!	!	!	!LO:TX:a:t=Allo	!LO:TX:a:t=Allo
8D\L	.	16dd\LL	.	16dd\LL	.	1ryy	1ryy	8cc\L	8ee\L
.	.	16ee\	.	16ee\	.	.	.	.	.
8D\	.	16ff#\	.	16ff#X\	.	.	.	8cc\	8ee\
.	.	16gg\JJ	.	16gg\JJ	.	.	.	.	.
8D\	.	16aa\LL	.	16aa\LL	.	.	.	8cc\	8ee\
.	.	16bb\	.	16bb\	.	.	.	.	.
8D\J	.	16ccc#\	.	16ccc#\	.	.	.	8cc\J	8ee\J
.	.	16ddd\JJ	.	16ddd\JJ	.	.	.	.	.
8D\L	.	16dd\LL	.	16dd\LL	.	.	.	8cc\L	8ee\L
.	.	16ee\	.	16ee\	.	.	.	.	.
8D\	.	16ff#\	.	16ff#\	.	.	.	8cc\	8ee\
.	.	16gg\JJ	.	16gg\JJ	.	.	.	.	.
8D\	.	16aa\LL	.	16aa\LL	.	.	.	8cc\	8ee\
.	.	16bb\	.	16bb\	.	.	.	.	.
8D\J	.	16ccc#\	.	16ccc#\	.	.	.	8cc\J	8ee\J
.	.	16ddd\JJ	.	16ddd\JJ	.	.	.	.	.
=6	=6	=6	=6	=6	=6	=6	=6	=6	=6
!LO:TX:t=P:problem=mixed beam	!	!	!	!	!	!	!	!	!
8D\L	.	16dd\LL	.	16dd\LL	.	1ryy	1ryy	8cc\	8ee\
.	.	16ddd\	.	16ddd\	.	.	.	.	.
8G\	.	16ccc#\	.	16ccc#\	.	.	.	4ee\	4gg\
.	.	16bb\JJ	.	16bb\JJ	.	.	.	.	.
8A\	.	16aa\LL	.	16aa\LL	.	.	.	.	.
.	.	16gg\	.	16gg\	.	.	.	.	.
8AA/J	.	16ff#\	.	16ff#\	.	.	.	8dd\	8ff\
.	.	16ee\JJ	.	16ee\JJ	.	.	.	.	.
!LO:TX:t=P:problem=mixed beam	!	!	!	!	!	!	!	!	!
16D/LL	.	16dd\LL	.	16dd\LL	.	.	.	8cc\	8ee\
16d\	.	16dd\	.	16dd\	.	.	.	.	.
16c#\	.	16cc#\	.	16cc#\	.	.	.	4ee\	4gg\
16B\JJ	.	16b\JJ	.	16b\JJ	.	.	.	.	.
16A\LL	.	16a/LL	.	16a/LL	.	.	.	.	.
16G\	.	16g/	.	16g/	.	.	.	.	.
16F#\	.	16f#/	.	16f#/	.	.	.	8dd\	8ff\
16E\JJ	.	16e/JJ	.	16e/JJ	.	.	.	.	.
!	!	!LO:LB:g=original	!	!LO:LB:g=original	!	!	!	!	!
=7	=7	=7	=7	=7	=7	=7	=7	=7	=7
8D\L	.	4d/	.	4d/	.	1ryy	1ryy	8cc\L	8ee\L
8E\	.	.	.	.	.	.	.	16ee\L	16gg\L
.	.	.	.	.	.	.	.	16dd\JJ	16ff\JJ
8F#\	.	8r	.	8r	.	.	.	8cc\L	8ee\L
8F#\J	.	8dd\	.	8dd\	.	.	.	8cc\J	8ee\J
8E\L	.	8ee\L	.	8ee\L	.	.	.	4g/	4dd\
8D\	.	8ff#\J	.	8ff#\J	.	.	.	.	.
8C#\	.	4gg\	.	4gg\	.	.	.	4r	4r
8AA\J	.	.	.	.	.	.	.	.	.
=8	=8	=8	=8	=8	=8	=8	=8	=8	=8
8D\L	.	4ff#\	.	4ff#\	.	1ryy	1ryy	8cc\L	8ee\L
8E\	.	.	.	.	.	.	.	16cc\L	16ee\L
.	.	.	.	.	.	.	.	16dd\JJ	16ff\JJ
8F#\	.	8r	.	8r	.	.	.	8ee\L	8gg\L
8D\J	.	[8aa\	.	8aa\	.	.	.	8cc\J	8ee\J
8D\L	.	8aa\]	.	8aa\	.	.	.	4cc\	4ee\
8D\	.	4ff#\	.	4ff#\	.	.	.	.	.
8D\	.	.	.	.	.	.	.	4r	4r
8D\J	.	[8dd\	.	8dd\	.	.	.	.	.
=9	=9	=9	=9	=9	=9	=9	=9	=9	=9
8D\L	.	8dd\]	.	8dd\	.	1ryy	1ryy	4cc\	4ee\
8D\	.	4ccn\	.	4ccn\	.	.	.	.	.
8D\	.	.	.	.	.	.	.	4r	4r
!	!	!LO:N:vis=8	!	!	!	!	!	!	!
8D\J	.	4aa\	.	8aa\	.	.	.	.	.
8D\L	.	.	.	8aa\	.	.	.	4cc\	4ee\
8D\	.	4ff#\	.	4ff#\	.	.	.	.	.
8D\	.	.	.	.	.	.	.	4r	4r
8D\J	.	8ccn\	.	8ccn\	.	.	.	.	.
!	!	!	!	!	!	!	!	!	!LO:LB:g=original
=10	=10	=10	=10	=10	=10	=10	=10	=10	=10
!	!	!LO:SIC:s=:v:8ccn	!	!LO:SIC:s=:v:8ccn	!	!	!	!	!
8G\L	.	8cc#\L	.	8cc#\L	.	1ryy	1ryy	8cc\L	8ff\L
8G\	.	8b\J	.	8b\J	.	.	.	16cc\L	16ff\L
.	.	.	.	.	.	.	.	16cc\JJ	16ff\JJ
8G\	.	8r	.	8r	.	.	.	8cc\L	8ff\L
8G\J	.	[8bb\	.	[8bb\	.	.	.	8cc\J	8ff\J
8E\L	.	8bb\]	.	8bb\]	.	.	.	4dd\	4ff#X\
8E\	.	4gg#X\	.	4gg#X\	.	.	.	.	.
8E\	.	.	.	.	.	.	.	4r	4r
8E\J	.	[8ee\	.	[8ee\	.	.	.	.	.
!LO:LB:g=original	!	!	!	!	!	!	!	!LO:LB:g=original	!
=11	=11	=11	=11	=11	=11	=11	=11	=11	=11
8E\L	.	8ee\]	.	8ee\]	.	1ryy	1ryy	4dd\	4ff#X\
8E\	.	4dd\	.	4dd\	.	.	.	.	.
8E\	.	.	.	.	.	.	.	4r	4r
!	!	!LO:N:vis=8	!	!LO:N:vis=8	!	!	!	!	!
8E\J	.	4bb\	.	4bb\	.	.	.	.	.
8E\L	.	.	.	.	.	.	.	4dd\	4ff#X\
8E\	.	4gg#X\	.	4gg#X\	.	.	.	.	.
8E\	.	.	.	.	.	.	.	4r	4r
8E\J	.	8dd\	.	8dd\	.	.	.	.	.
=12	=12	=12	=12	=12	=12	=12	=12	=12	=12
8A\L	.	8dd\L	.	8dd\L	.	1ryy	1ryy	8r	8r
8A\	.	8cc#\J	.	8cc#\J	.	.	.	16dd\LL	16gg\LL
.	.	.	.	.	.	.	.	16dd\JJ	16gg\JJ
8A\	.	8r	.	8r	.	.	.	4dd\	4gg\
8A\J	.	8cc#\	.	8ee\	.	.	.	.	.
8A\L	.	16cc#\LL	.	16ee\LL	.	.	.	8g/	8dd\
.	.	16a\J	.	16a\J	.	.	.	.	.
8A\	.	8aT\J	.	8aT\J	.	.	.	8r	8r
8A\	.	16dd\LL	.	16ff#\LL	.	.	.	8cc\	8ee\
.	.	16a\J	.	16a\J	.	.	.	.	.
8A\J	.	8aT\J	.	8aT\J	.	.	.	8r	8r
=13	=13	=13	=13	=13	=13	=13	=13	=13	=13
8A\L	.	16ee\LL	.	16gg\LL	.	1ryy	1ryy	8dd\	8ff\
.	.	16a\J	.	16a\J	.	.	.	.	.
8A\	.	8aT\J	.	8aT\J	.	.	.	8r	8r
8A\	.	16dd\LL	.	16ff#\LL	.	.	.	8cc\	8ee\
.	.	16a\J	.	16a\J	.	.	.	.	.
8A\J	.	8aT\J	.	8aT\J	.	.	.	8r	8r
!	!	!	!	!LO:LB:g=original	!	!	!	!	!
8A\L	.	16cc#\LL	.	16ee\LL	.	.	.	8g/	8dd\
.	.	16a\J	.	16a\J	.	.	.	.	.
8A\	.	8aT\J	.	8aT\J	.	.	.	8r	8r
8A\	.	16dd\LL	.	16ff#\LL	.	.	.	8cc\	8ee\
.	.	16a\J	.	16a\J	.	.	.	.	.
8A\J	.	8aT\J	.	8aT\J	.	.	.	8r	8r
!	!	!LO:LB:g=original	!	!	!	!	!	!	!
=14	=14	=14	=14	=14	=14	=14	=14	=14	=14
8A\L	.	16ee\LL	.	16gg\LL	.	1ryy	1ryy	8dd\	8ff\
.	.	16a\J	.	16a\J	.	.	.	.	.
8A\	.	8a\J	.	8aT\J	.	.	.	8r	8r
8A\	.	16dd\LL	.	16ff#\LL	.	.	.	8cc\	8ee\
.	.	16a\J	.	16a\J	.	.	.	.	.
8A\J	.	8aT\J	.	8aT\J	.	.	.	8r	8r
!LO:TX:t=P:problem=mixed beam	!	!	!	!	!	!	!	!	!
8A\L	.	8dd\L	.	8ff#\L	.	.	.	8cc\L	8ee\L
8AA/	.	8cc#\J	.	8ee\J	.	.	.	16g\L	16dd\L
.	.	.	.	.	.	.	.	16g\JJ	16dd\JJ
8AA/	.	4r	.	8r	.	.	.	4g/	4dd\
8AA/J	.	.	.	8ff#\	.	.	.	.	.
=15	=15	=15	=15	=15	=15	=15	=15	=15	=15
8BB/L	.	2r	.	8ff#\	.	1ryy	1ryy	00r	00r
8BB/	.	.	.	4bb\	.	.	.	.	.
8BB/	.	.	.	.	.	.	.	.	.
8BB/J	.	.	.	8aa\	.	.	.	.	.
8E\L	.	8b\	.	4gg#X\	.	.	.	.	.
8E\	.	4ee\	.	.	.	.	.	.	.
8E\	.	.	.	4r	.	.	.	.	.
8E\J	.	8dd\	.	.	.	.	.	.	.
=16	=16	=16	=16	=16	=16	=16	=16	=16	=16
8AA/L	.	4cc#\	.	8ee\	.	1ryy	1ryy	.	.
8AA/	.	.	.	4aa\	.	.	.	.	.
8AA/	.	4r	.	.	.	.	.	.	.
8AA/J	.	.	.	8ggn\	.	.	.	.	.
8D\L	.	8a/	.	4ff#\	.	.	.	.	.
8D\	.	4dd\	.	.	.	.	.	.	.
8D\	.	.	.	4r	.	.	.	.	.
8D\J	.	8cc#\	.	.	.	.	.	.	.
=17	=17	=17	=17	=17	=17	=17	=17	=17	=17
8GG/L	.	4b\	.	8dd\	.	1ryy	1ryy	.	.
8GG/	.	.	.	4gg\	.	.	.	.	.
8GG/	.	4r	.	.	.	.	.	.	.
8GG/J	.	.	.	8ff#\	.	.	.	.	.
8C#/L	.	8g/	.	4ee\	.	.	.	.	.
8C#/	.	4cc#\	.	.	.	.	.	.	.
8C#/	.	.	.	4r	.	.	.	.	.
8C#/J	.	8b\	.	.	.	.	.	.	.
=18	=18	=18	=18	=18	=18	=18	=18	=18	=18
8F#\L	.	4a#X/	.	8cc#\	.	1ryy	1ryy	.	.
8F#\	.	.	.	4ff#\	.	.	.	.	.
8F#\	.	4r	.	.	.	.	.	.	.
8F#\J	.	.	.	8ee\	.	.	.	.	.
*Xtremolo	*	*	*	*	*	*	*	*	*
!	!	!LO:TX:t=P:problem=mixed beam	!	!	!	!	!	!	!
8BB/L	.	8b/L	.	8dd\L	.	.	.	.	.
8BB/	.	8bb\	.	8bb\	.	.	.	.	.
8D/	.	8bb\	.	8bb\	.	.	.	.	.
8E/J	.	8bb\J	.	8bb\J	.	.	.	.	.
=19	=19	=19	=19	=19	=19	=19	=19	=19	=19
8F#\L	.	8aa#X\	.	8aa#X\	.	1ryy	1ryy	2r	2r
8E\J	.	4ggn\	.	4ggn\	.	.	.	.	.
8AA#X/L	.	.	.	.	.	.	.	.	.
8FF#/J	.	(16ff#\LL	.	16ff#\LL	.	.	.	.	.
.	.	16ee\JJ)	.	16ee\JJ	.	.	.	.	.
8BB/L	.	8dd\L	.	8dd\L	.	.	.	8e/L	8e/L
8D/J	.	16cc#\L	.	16cc#\L	.	.	.	16e/L	16e/L
.	.	16b\JJ	.	16b\JJ	.	.	.	16e/JJ	16e/JJ
!LO:TX:t=P:problem=mixed beam	!	!	!	!	!	!	!	!	!
8F#\L	.	4cc#\	.	4cc#t\	.	.	.	8e/L	8e/L
8FF#/J	.	.	.	.	.	.	.	8e/J	8e/J
!	!	!	!	!LO:LB:g=original	!	!	!	!	!
=20	=20	=20	=20	=20	=20	=20	=20	=20	=20
8BB/L	.	8b\L	.	8b\L	.	1ryy	1ryy	4e/	4e/
8BB/J	.	8ff#\J	.	8ff#\J	.	.	.	.	.
8D#X\L	.	16bb\LL	.	16bb\LL	.	.	.	4r	4r
.	.	16ff#\	.	16ff#\	.	.	.	.	.
8D#\J	.	16gg\	.	16gg\	.	.	.	.	.
.	.	16aa\JJ	.	16aa\JJ	.	.	.	.	.
8E\L	.	16gg\LL	.	16gg\LL	.	.	.	2r	2r
.	.	16ee\	.	16ee\	.	.	.	.	.
8E\	.	16ff#\	.	16ff#\	.	.	.	.	.
.	.	16gg\JJ	.	16gg\JJ	.	.	.	.	.
8B\	.	16ff#\LL	.	16ff#\LL	.	.	.	.	.
.	.	16dd#X\	.	16dd#X\	.	.	.	.	.
8B\J	.	16ee\	.	16ee\	.	.	.	.	.
.	.	16ff#\JJ	.	16ff#\JJ	.	.	.	.	.
!	!	!LO:LB:g=original	!	!	!	!	!	!	!
=21	=21	=21	=21	=21	=21	=21	=21	=21	=21
8E\L	.	8ee\L	.	8ee\L	.	1ryy	1ryy	4r	4r
8E\	.	8ee\J	.	8ee\J	.	.	.	.	.
8C#\	.	16aa\LL	.	16aa\LL	.	.	.	8r	8r
.	.	16ee\	.	16ee\	.	.	.	.	.
8C#\J	.	16ff#\	.	16ff#\	.	.	.	8g/	8dd\
.	.	16gg\JJ	.	16gg\JJ	.	.	.	.	.
!LO:LB:g=original	!	!	!	!	!	!	!	!	!
8D\L	.	16ff#\LL	.	16ff#\LL	.	.	.	4cc\	4ee\
.	.	16dd\	.	16dd\	.	.	.	.	.
8D\	.	16ee\	.	16ee\	.	.	.	.	.
.	.	16ff#\JJ	.	16ff#\JJ	.	.	.	.	.
8A\	.	16ee\LL	.	16ee\LL	.	.	.	4g/	4dd\
.	.	16cc#\	.	16cc#\	.	.	.	.	.
8A\J	.	16dd\	.	16dd\	.	.	.	.	.
.	.	16ee\JJ	.	16ee\JJ	.	.	.	.	.
!	!	!	!	!	!	!	!	!	!LO:LB:g=original
=22	=22	=22	=22	=22	=22	=22	=22	=22	=22
8D\L	.	16dd\LL	.	16dd\LL	.	1ryy	1ryy	8cc\L	8ee\L
.	.	16ddd\	.	16ddd\	.	.	.	.	.
8E\	.	16ddd\	.	16ddd\	.	.	.	8cc\	8ee\
.	.	16ddd\JJ	.	16ddd\JJ	.	.	.	.	.
8F#\	.	16ddd\LL	.	16ddd\LL	.	.	.	8cc\	8ee\
.	.	16cccn\	.	16cccn\	.	.	.	.	.
8D\J	.	16bb\	.	16bb\	.	.	.	8cc\J	8ee\J
.	.	16aa\JJ	.	16aa\JJ	.	.	.	.	.
*tremolo	*	*	*	*	*	*	*	*	*
8G\L	.	16bb\LL	.	16bb\LL	.	.	.	4cc\	4ff\
.	.	16aa\	.	16aa\	.	.	.	.	.
8G\	.	16gg\	.	16gg\	.	.	.	.	.
.	.	16ff#\JJ	.	16ff#\JJ	.	.	.	.	.
8G\	.	16ee\LL	.	16ee\LL	.	.	.	4r	4r
.	.	16dd\	.	16dd\	.	.	.	.	.
8G\J	.	16cc#X\	.	16cc#X\	.	.	.	.	.
.	.	16b\JJ	.	16b\JJ	.	.	.	.	.
!	!	!	!	!	!	!	!	!LO:LB:g=original	!
=23	=23	=23	=23	=23	=23	=23	=23	=23	=23
!	!	!	!	!LO:TX:t=P:problem=mixed beam	!	!	!	!	!
8A\L	.	8a\L	.	8a/L	.	1ryy	1ryy	4g/	4dd\
8A\	.	16ff#\L	.	16aa\L	.	.	.	.	.
.	.	16a\JJ	.	16a/JJ	.	.	.	.	.
!	!	!	!	!LO:TX:t=P:problem=mixed beam	!	!	!	!	!
8A\	.	16ff#\LL	.	16aa\LL	.	.	.	4ee\	4gg\
.	.	16a\	.	16a/	.	.	.	.	.
8A\J	.	16ff#\	.	16aa\	.	.	.	.	.
.	.	16a\JJ	.	16a\JJ	.	.	.	.	.
*	*	*	*	*	*	*	*	*2\right	*2\right
8A\L	.	16ee\LL	.	16gg\LL	.	.	.	2dd\	2ff\
.	.	16a\	.	16a\	.	.	.	.	.
8A\	.	16ee\	.	16gg\	.	.	.	.	.
.	.	16a\JJ	.	16a\JJ	.	.	.	.	.
8A\	.	16ee\LL	.	16gg\LL	.	.	.	.	.
.	.	16a\	.	16a\	.	.	.	.	.
8A\J	.	16ee\	.	16gg\	.	.	.	.	.
.	.	16a\JJ	.	16a\JJ	.	.	.	.	.
=24	=24	=24	=24	=24	=24	=24	=24	=24	=24
8A\L	.	16dd\LL	.	16ff#\LL	.	1ryy	1ryy	2cc\	2ee\
.	.	16a\	.	16a\	.	.	.	.	.
8A\	.	16dd\	.	16ff#\	.	.	.	.	.
.	.	16a\JJ	.	16a\JJ	.	.	.	.	.
8A\	.	16dd\LL	.	16ff#\LL	.	.	.	.	.
.	.	16a\	.	16a\	.	.	.	.	.
8A\J	.	16dd\	.	16ff#\	.	.	.	.	.
.	.	16a\JJ	.	16a\JJ	.	.	.	.	.
!LO:TX:t=P:problem=mixed beam	!	!	!	!	!	!	!	!	!
8A\L	.	8cc#\L	.	8ee\L	.	.	.	8g/L	8dd\L
8AA/	.	8a\J	.	8a\J	.	.	.	16g/L	16dd\L
.	.	.	.	.	.	.	.	16g/JJ	16dd\JJ
8C#/	.	4r	.	4r	.	.	.	4g/	4dd\
8AA/J	.	.	.	.	.	.	.	.	.
!	!	!	!	!LO:LB:g=original	!	!	!	!	!
=25	=25	=25	=25	=25	=25	=25	=25	=25	=25
!	!LO:DY:a	!	!LO:DY:a:rj:t=pia	!LO:TX:t=P:p = p:problem	!LO:DY:a	!	!	!	!
8AA/L	p	16ff#\LL	p	16aa\LL	p	1ryy	1ryy	2ee\	2gg\
.	.	16a\	.	16a\	.	.	.	.	.
8AA/	.	16ff#\	.	16aa\	.	.	.	.	.
.	.	16a\JJ	.	16a\JJ	.	.	.	.	.
8AA/	.	16ff#\LL	.	16aa\LL	.	.	.	.	.
.	.	16a\	.	16a\	.	.	.	.	.
8AA/J	.	16ff#\	.	16aa\	.	.	.	.	.
.	.	16a\JJ	.	16a\JJ	.	.	.	.	.
8AA/L	.	16ee\LL	.	16gg\LL	.	.	.	2dd\	2ff\
.	.	16a\	.	16a\	.	.	.	.	.
8AA/	.	16ee\	.	16gg\	.	.	.	.	.
.	.	16a\JJ	.	16a\JJ	.	.	.	.	.
8AA/	.	16ee\LL	.	16gg\LL	.	.	.	.	.
.	.	16a\	.	16a\	.	.	.	.	.
8AA/J	.	16ee\	.	16gg\	.	.	.	.	.
.	.	16a\JJ	.	16a\JJ	.	.	.	.	.
=26	=26	=26	=26	=26	=26	=26	=26	=26	=26
8AA/L	.	16dd\LL	.	16ff#\LL	.	1ryy	1ryy	2cc\	2ee\
.	.	16a\	.	16a\	.	.	.	.	.
8AA/	.	16dd\	.	16ff#\	.	.	.	.	.
.	.	16a\JJ	.	16a\JJ	.	.	.	.	.
!	!	!LO:LB:g=original	!	!	!	!	!	!	!
8AA/	.	16dd\LL	.	16ff#\LL	.	.	.	.	.
.	.	16a\	.	16a\	.	.	.	.	.
8AA/J	.	16dd\	.	16ff#\	.	.	.	.	.
.	.	16a\JJ	.	16a\JJ	.	.	.	.	.
8AA/L	.	8cc#\L	.	8ee\L	.	.	.	8g/L	8dd\L
8AA/	.	8a\J	.	8a\J	.	.	.	16g/L	16dd\L
.	.	.	.	.	.	.	.	16g/JJ	16dd\JJ
8C#/	.	8r	.	8r	.	.	.	8g/L	8dd\L
8AA/J	.	8a/	.	8a/	.	.	.	8g/J	8dd\J
=27	=27	=27	=27	=27	=27	=27	=27	=27	=27
*	*	*tremolo	*	*	*	*	*	*	*
*	*	*	*	*tremolo	*	*	*	*	*
!	!LO:DY:a	!	!	!	!	!	!	!	!
8D\L	f	16d/LL	.	16d/LL	.	1ryy	1ryy	8cc\L	8ee\L
.	.	16d/	.	16d/	.	.	.	.	.
8D\	.	16d/	.	16d/	.	.	.	8cc\	8ee\
.	.	16d/JJ	.	16d/JJ	.	.	.	.	.
8D\	.	16d/LL	.	16f#/LL	.	.	.	8cc\	8ee\
.	.	16d/	.	16f#/	.	.	.	.	.
8D\J	.	16d/	.	16f#/	.	.	.	8cc\J	8ee\J
.	.	16d/JJ	.	16f#/JJ	.	.	.	.	.
8D\L	.	16f#/LL	.	16a/LL	.	.	.	4cc\	4ee\
.	.	16f#/	.	16a/	.	.	.	.	.
8D\	.	16f#/	.	16a/	.	.	.	.	.
.	.	16f#/JJ	.	16a/JJ	.	.	.	.	.
8D\	.	16a/LL	.	16dd\LL	.	.	.	4r	4r
.	.	16a/	.	16dd\	.	.	.	.	.
8D\J	.	16a/	.	16dd\	.	.	.	.	.
.	.	16a/JJ	.	16dd\JJ	.	.	.	.	.
=28	=28	=28	=28	=28	=28	=28	=28	=28	=28
8D\L	.	16a/LL	.	16dd\LL	.	1ryy	1ryy	8cc\L	8ee\L
.	.	16a/	.	16dd\	.	.	.	.	.
8D\	.	16a/	.	16dd\	.	.	.	8cc\	8ee\
.	.	16a/JJ	.	16dd\JJ	.	.	.	.	.
8D\	.	16dd\LL	.	16ff#\LL	.	.	.	8cc\	8ee\
.	.	16dd\	.	16ff#\	.	.	.	.	.
8D\J	.	16dd\	.	16ff#\	.	.	.	8cc\J	8ee\J
.	.	16dd\JJ	.	16ff#\JJ	.	.	.	.	.
8D\L	.	16ff#\LL	.	16aa\LL	.	.	.	4cc\	4ee\
.	.	16ff#\	.	16aa\	.	.	.	.	.
8D\	.	16ff#\	.	16aa\	.	.	.	.	.
.	.	16ff#\JJ	.	16aa\JJ	.	.	.	.	.
8D\	.	16aa\LL	.	16ddd\LL	.	.	.	4r	4r
.	.	16aa\	.	16ddd\	.	.	.	.	.
8D\J	.	16aa\	.	16ddd\	.	.	.	.	.
.	.	16aa\JJ	.	16ddd\JJ	.	.	.	.	.
=29	=29	=29	=29	=29	=29	=29	=29	=29	=29
8D\L	.	16ff#\LL	.	16ddd\LL	.	1ryy	1ryy	8cc\L	8ee\L
.	.	16dd\	.	16dd\	.	.	.	.	.
8E\	.	16ff#\	.	16ff#\	.	.	.	16cc\L	16ee\L
.	.	16aa\JJ	.	16aa\JJ	.	.	.	16dd\JJ	16ff\JJ
8F#\	.	16ddd\LL	.	16ddd\LL	.	.	.	8ee\L	8gg\L
.	.	16dd\	.	16dd\	.	.	.	.	.
8E\J	.	16ff#\	.	16ff#\	.	.	.	8dd\J	8ff\J
.	.	16aa\JJ	.	16aa\JJ	.	.	.	.	.
4D\	.	4ddd\	.	16ddd\LL	.	.	.	4cc\	4ee\
.	.	.	.	16ddd\	.	.	.	.	.
.	.	.	.	16ddd\	.	.	.	.	.
.	.	.	.	16ddd\JJ	.	.	.	.	.
*	*	*Xtremolo	*	*Xtremolo	*	*	*	*	*
4r	.	16bb\LL	.	16bb\LL	.	.	.	4r	4r
.	.	16bb\	.	16bb\	.	.	.	.	.
.	.	16bb\	.	16bb\	.	.	.	.	.
.	.	16bb\JJ	.	16bb\JJ	.	.	.	.	.
=30	=30	=30	=30	=30	=30	=30	=30	=30	=30
*	*	*tremolo	*	*tremolo	*	*	*	*	*
2r	.	16gg\LL	.	16gg\LL	.	1ryy	1ryy	1r	1r
.	.	16gg\	.	16gg\	.	.	.	.	.
.	.	16gg\	.	16gg\	.	.	.	.	.
.	.	16gg\JJ	.	16gg\JJ	.	.	.	.	.
*	*	*	*	*Xtremolo	*	*	*	*	*
.	.	16aa\LL	.	16aa\LL	.	.	.	.	.
.	.	16aa\	.	16aa\	.	.	.	.	.
.	.	16aa\	.	16aa\	.	.	.	.	.
.	.	16aa\JJ	.	16aa\JJ	.	.	.	.	.
*	*	*	*	*tremolo	*	*	*	*	*
4D\	.	16dd\LL	.	16dd\LL	.	.	.	.	.
.	.	16dd\	.	16dd\	.	.	.	.	.
.	.	16dd\	.	16dd\	.	.	.	.	.
.	.	16dd\JJ	.	16dd\JJ	.	.	.	.	.
*	*	*	*	*Xtremolo	*	*	*	*	*
4B\	.	16b/LL	.	16b\LL	.	.	.	.	.
.	.	16b/	.	16b\	.	.	.	.	.
.	.	16b/	.	16b\	.	.	.	.	.
.	.	16b/JJ	.	16b\JJ	.	.	.	.	.
!	!	!	!	!LO:LB:g=original	!	!	!	!	!
=31	=31	=31	=31	=31	=31	=31	=31	=31	=31
*	*	*	*	*tremolo	*	*	*	*	*
4G\	.	16g/LL	.	16g/LL	.	1ryy	1ryy	4r	4r
.	.	16g/	.	16g/	.	.	.	.	.
.	.	16g/	.	16g/	.	.	.	.	.
.	.	16g/JJ	.	16g/JJ	.	.	.	.	.
4A\	.	16a/LL	.	16a/LL	.	.	.	8r	8r
.	.	16a/	.	16a/	.	.	.	.	.
.	.	16a/	.	16a/	.	.	.	8g/	8dd\
.	.	16a/JJ	.	16a/JJ	.	.	.	.	.
*	*	*	*	*Xtremolo	*	*	*	*	*
*	*	*Xtremolo	*	*	*	*	*	*	*
8D\L	.	8d/L	.	8d/L	.	.	.	8cc\L	8ee\L
8D\	.	8d/ 8a/ 8ff#/	.	8d/ 8a/ 8ff#/	.	.	.	8cc\	8ee\
8D\	.	8d/ 8a/ 8ff#/	.	8d/ 8a/ 8ff#/	.	.	.	8cc\	8ee\
8D\J	.	8d/J 8a/ 8ff#/	.	8d/J 8a/ 8ff#/	.	.	.	8cc\J	8ee\J
=32	=32	=32	=32	=32	=32	=32	=32	=32	=32
4D\	.	4d/ 4a/ 4ff#/	.	4d/ 4a/ 4ff#/	.	1ryy	1ryy	4cc\	4ee\
4r	.	4r	.	4r	.	.	.	4r	4r
!	!	!LO:TX:t=P:||:problem=ozdobna kreska końcowa 	!	!LO:TX:t=P:||:problem=ozdobna kreska końcowa 	!	!	!	!	!LO:TX:t=P:||:problem=ozdobna kreska końcowa 
2r	.	2r	.	2r	.	.	.	2r	2r
==	==	==	==	==	==	==	==	==	==
*-	*-	*-	*-	*-	*-	*-	*-	*-	*-
!!!system-decoration: [(s1,s2)][(s3,s4)][(s5,s6)]s7
!!!EED: Leszek Kubiak
!!!EEV: 2020-10-17
!!!ENC: Krzysztof Stępień
!!!END: 2020-05-20
!!!YEC: Copyright 2022 Narodowy Instytut Fryderyka Chopina (https://polishscores.org)
!!!YEM: License CC-BY-4.0 (https://creativecommons.org/licenses/by/4.0)
